X:1
T:Title
%%score ( 1 2 ) { 3 | 4 }
L:1/8
Q:1/4=115
M:3/4
K:Bb
V:1 treble nm="Grand Piano, Soprano"
V:2 treble 
V:3 bass nm="Choir Pad, Not Yet"
V:4 bass 
V:1
 [DF]2 [DB]3 [DB] | [DB]2 [GB][FA] [EG]2 | [DF]2 [EG]2 [EF]2 | [EA]2 [DB]4 | [FB]2 [Fc]3 [Fc] | %5
w: By~Robert~Lowry * *|||||
 [Fc]2 [Ec][DB] [FA]2 | F2 [FB]2 [Fc]2 | [Fd]2 [Fc]4 | [Fc]2 [Fe]3 [Fd] | [Fc]2 [Fd]2 [DB]2 | %10
w: |||||
 [FB]2 [GB]2 [FA]2 | [EG]2 [DF]4 | [DF]2 [EG]2 [FA]2 | [FB]2 [Fe]2 [Fd]2 | [Gc]2 [FB]3 [Fc] | %15
w: |||||
 [FA]2 [FB]4 | [FB]>[Fc] [Fd]4 | [FB]>[Fc] [Fd]4 | [Fd]>[Fd] ed [Fc]2 | F2 [Fc]4 | %20
w: |||||
 [Fc]>[Fd] [Fe]4 | [Fc]>[Fd] [Fe]4 | [Fe]>[Fe] fe [Fd]2 | [Fc]2 [Fd]4 | [Fd][Fd] [^Fd]3 [Fd] | %25
w: |||||
 [^Fd]2 [Gd]4 | [Gd][Gd] [_Ad]2 [Ad]2 | [_Ad]2 [Ge]4 | [Ff][Fe] [Fd]2 [Fc]2 | [FB]2 [Ec]2 [GB]2 | %30
w: |||||
 [EG]2 [DF]2 [Fd]2- | [Fd][Ec] [DB]4- | [DB]4 z2 |] %33
w: |||
V:2
 x6 | x6 | x6 | x6 | x6 | x6 | x6 | x6 | x6 | x6 | x6 | x6 | x6 | x6 | x6 | x6 | x6 | x6 | %18
 z2 F2 z2 | x6 | x6 | x6 | z2 F2 z2 | x6 | x6 | x6 | x6 | x6 | x6 | x6 | x6 | x6 | x6 |] %33
V:3
 B,2 F,3 F, | F,2 B,2 B,2 | B,2 B,2 A,2 | C2 B,4 | B,2 A,3 A, | A,2 A,B, C2 | A,2 B,2 A,2 | %7
 B,2 A,4 | A,2 C3 B, | A,2 B,2 F,2 | B,2 B,2 B,2 | B,2 B,4 | B,2 B,2[K:treble] E2 | D2 C2 =B,2 | %14
 C2 D3 E | C2 D4 | B,>A, B,4 | B,>A, B,4 | B,>B, CB, A,2 | A,2 A,4 | A,>B, C4 | %21
 A,>B,[K:treble] C4 | C>C DC[K:bass] B,2 | A,2 B,4 | B,B,[K:treble] C3 C | C2 B,4 | %26
 B,[K:bass]B, B,2 B,2 | B,2 B,4 | B,A, B,2 A,2 | B,2 G,2 B,2 | B,2 B,2 B,2- | B,A, B,4- | B,4 z2 |] %33
V:4
 B,,2 B,,3 B,, | B,,2 B,,2 B,,2 | B,,2 E,2 F,2 | F,2 B,,4 | D,2 F,3 F, | F,2 F,2 F,2 | %6
 F,E, D,2 C,2 | B,,2 F,4 | F,2 F,3 F, | F,2 z2 B,,2 | D,2 E,2 E,2 | E,2 B,,4 | B,,2 E,2 C,2 | %13
 B,,2 C,2 D,2 | E,2 F,3 F, | F,2 B,,4 | D,>F, z2 z2 | D,>F, z2 z2 | z2 F,2 F,2 | F,2 F,4 | %20
 F,>F, F,4 | F,>F, F,4 | F,>F, F,2 F,2 | F,2 z2 z2 | z2 A,3 A, | A,2 G,4 | G,G, F,2 F,2 | F,2 E,4 | %28
 D,C, B,,2 C,2 | D,2 E,2 E,2 | E,2 F,2 F,2- | F,F, B,,4- | B,,4 z2 |] %33

